Radio/Source/NRK P1.svg

<?xml version="1.0" encoding="UTF-8" standalone="no"?>
<svg
   xmlns:dc="http://purl.org/dc/elements/1.1/"
   xmlns:cc="http://creativecommons.org/ns#"
   xmlns:rdf="http://www.w3.org/1999/02/22-rdf-syntax-ns#"
   xmlns:svg="http://www.w3.org/2000/svg"
   xmlns="http://www.w3.org/2000/svg"
   xmlns:sodipodi="http://sodipodi.sourceforge.net/DTD/sodipodi-0.dtd"
   xmlns:inkscape="http://www.inkscape.org/namespaces/inkscape"
   width="81"
   height="31.997969"
   viewBox="0 0 81 31.997969"
   version="1.1"
   id="svg23"
   sodipodi:docname="NRK P1.svg"
   inkscape:version="0.92.3 (2405546, 2018-03-11)">
  <metadata
     id="metadata27">
    <rdf:RDF>
      <cc:Work
         rdf:about="">
        <dc:format>image/svg+xml</dc:format>
        <dc:type
           rdf:resource="http://purl.org/dc/dcmitype/StillImage" />
        <dc:title>nrk-logo-nrk-p1--colorwhite</dc:title>
      </cc:Work>
    </rdf:RDF>
  </metadata>
  <sodipodi:namedview
     pagecolor="#ffffff"
     bordercolor="#666666"
     borderopacity="1"
     objecttolerance="10"
     gridtolerance="10"
     guidetolerance="10"
     inkscape:pageopacity="0"
     inkscape:pageshadow="2"
     inkscape:window-width="1920"
     inkscape:window-height="1017"
     id="namedview25"
     showgrid="false"
     fit-margin-top="0"
     fit-margin-left="0"
     fit-margin-right="0"
     fit-margin-bottom="0"
     inkscape:zoom="3.4634146"
     inkscape:cx="41"
     inkscape:cy="15.997969"
     inkscape:window-x="-8"
     inkscape:window-y="-8"
     inkscape:window-maximized="1"
     inkscape:current-layer="svg23" />
  <!-- Generator: Sketch 46.2 (44496) - http://www.bohemiancoding.com/sketch -->
  <title
     id="title2">nrk-logo-nrk-p1--colorwhite</title>
  <desc
     id="desc4">Created with Sketch.</desc>
  <defs
     id="defs6" />
  <g
     id="Radio"
     style="fill:none;fill-rule:evenodd;stroke:none;stroke-width:1"
     transform="translate(0,-2)">
    <g
       id="nrk-logo-nrk-p1--colorwhite">
      <g
         id="nrk-tv-nrk-1__nrk--white"
         transform="translate(0,9)"
         style="fill:#ffffff">
        <g
           id="nrk-tv-nrk-1__nrk">
          <path
             d="M 41.27426,10.318843 C 40.93865,9.7168255 40.919415,9.3466775 41.243086,8.7654842 l 4.44672,-7.7066607 H 39.52082 c 0,0 -3.7063,6.4123123 -4.213031,7.3032882 -0.501867,0.889806 -0.480201,1.4438582 0.02056,2.3582313 C 35.835081,11.633547 39.52082,18 39.52082,18 h 6.168986 c 0,0 -4.366907,-7.586164 -4.415546,-7.681157"
             id="k"
             style="fill:#ffffff;fill-opacity:1"
             inkscape:connector-curvature="0" />
          <path
             style="fill:#ffffff;fill-opacity:1"
             d="m 28.647769,18 h 5.6103 V 1.0588235 h -5.6103 z"
             id="polygon9"
             inkscape:connector-curvature="0" />
          <path
             d="m 25.127403,0.73058823 c -1.746365,0 -3.159773,1.51059537 -3.159773,3.37560587 0,1.8638401 1.413408,3.3791172 3.159773,3.3791172 1.749239,0 3.168617,-1.5152771 3.168617,-3.3791172 0,-1.8650105 -1.419378,-3.37560587 -3.168617,-3.37560587"
             id="o"
             style="fill:#ffffff;fill-opacity:1"
             inkscape:connector-curvature="0" />
          <path
             style="fill:#ffffff;fill-opacity:1"
             d="m 16.004034,18 h 5.606983 V 1.0588235 h -5.606983 z"
             id="r"
             inkscape:connector-curvature="0" />
          <path
             style="fill:#ffffff;fill-opacity:1"
             d="M 0,18 H 5.5965922 V 1.0588235 H 0 Z"
             id="n"
             inkscape:connector-curvature="0" />
          <path
             d="M 12.648378,3.7806519 C 12.361186,2.2282294 11.078661,1.0588235 9.5414447,1.0588235 H 5.9368449 L 9.5589105,18 h 6.0929325 z"
             id="path14"
             style="fill:#ffffff;fill-opacity:1"
             inkscape:connector-curvature="0" />
        </g>
      </g>
      <path
         d="M 65.001468,2 C 56.162585,2 49,9.1623595 49,17.99921 49,26.834706 56.162585,33.997968 65.001468,33.997968 73.835834,33.997968 81,26.834706 81,17.99921 81,9.1623595 73.835834,2 65.001468,2"
         id="nrk-radio-nrk-p1__p1"
         inkscape:connector-curvature="0"
         style="fill:#00b8f1" />
      <polyline
         id="radio-nrk-p1__p1__1"
         points="70.9855606 26.1717442 74.9774961 26.1717442 74.9774961 9.82289315 68.6004689 9.82289315 68.6004689 13.2851595 70.9855606 13.2880946 70.9855606 26.1717442"
         style="fill:#ffffff" />
      <path
         d="m 58.933216,13.275451 h 2.069232 c 1.611811,0 2.337679,0.862462 2.337679,2.226146 0,1.386487 -0.795181,2.227952 -2.43115,2.227952 h -0.735576 v 3.271712 h 0.964061 c 4.156074,0 6.179022,-2.158188 6.179022,-5.680059 0,-3.453009 -2.203568,-5.4983088 -5.975824,-5.4983088 H 54.912381 V 26.172647 h 4.020835 V 13.275451"
         id="radio-nrk-p1__p1__p"
         inkscape:connector-curvature="0"
         style="fill:#ffffff" />
    </g>
  </g>
</svg>

<svg id="a" version="1.1" viewBox="0 0 81 31.998" xmlns="http://www.w3.org/2000/svg">
 <g id="b" transform="translate(0,-2)" fill="none" fill-rule="evenodd">
  <g id="c">
   <g id="d" transform="translate(0,9)" fill="#fff">
    <g id="e" fill="#fff">
     <path id="f" d="m41.274 10.319c-0.33561-0.60202-0.35484-0.97217-0.031174-1.5534l4.4467-7.7067h-6.169s-3.7063 6.4123-4.213 7.3033c-0.50187 0.88981-0.4802 1.4439 0.02056 2.3582 0.50673 0.9132 4.1925 7.2797 4.1925 7.2797h6.169s-4.3669-7.5862-4.4155-7.6812"/>
     <path id="g" d="m28.648 18h5.6103v-16.941h-5.6103z"/>
     <path id="h" d="m25.127 0.73059c-1.7464 0-3.1598 1.5106-3.1598 3.3756 0 1.8638 1.4134 3.3791 3.1598 3.3791 1.7492 0 3.1686-1.5153 3.1686-3.3791 0-1.865-1.4194-3.3756-3.1686-3.3756"/>
     <path id="i" d="m16.004 18h5.607v-16.941h-5.607z"/>
     <path id="j" d="m0 18h5.5966v-16.941h-5.5966z"/>
     <path id="k" d="m12.648 3.7807c-0.28719-1.5524-1.5697-2.7218-3.1069-2.7218h-3.6046l3.6221 16.941h6.0929z"/>
    </g>
   </g>
   <path id="l" d="m65.001 2c-8.8389 0-16.001 7.1624-16.001 15.999 0 8.8355 7.1626 15.999 16.001 15.999 8.8344 0 15.999-7.1633 15.999-15.999 0-8.8369-7.1642-15.999-15.999-15.999" fill="#00b8f1"/>
   <polyline id="m" points="70.986 26.172 74.977 26.172 74.977 9.8229 68.6 9.8229 68.6 13.285 70.986 13.288 70.986 26.172" fill="#fff"/>
   <path id="n" d="m58.933 13.275h2.0692c1.6118 0 2.3377 0.86246 2.3377 2.2261 0 1.3865-0.79518 2.228-2.4312 2.228h-0.73558v3.2717h0.96406c4.1561 0 6.179-2.1582 6.179-5.6801 0-3.453-2.2036-5.4983-5.9758-5.4983h-6.4283v16.35h4.0208v-12.897" fill="#fff"/>
  </g>
 </g>
</svg>
